X: 256
T: Hai tai
L: 1/16
M: 2/4
K: G
g2 f e d2 B d [I:setbarnb 1]| 
e g f e2< d2 B | 
g2 f e B2 d e | 
G F E GA4 | 
A B d2 B g e d | 
B A B d2< G2 E | 
A A A B d G F E | 
D8 |]

@@@ Tune index: 9130
